X:61
T:Little Jock Elliot or Whae dare meddle wi' me
Z:Jack Campin - http://www.campin.me.uk
S:Blaikie MS (NLS MS.1578) p19, Blaikie #56
M:9/8
L:1/8
V:1 midi program 1 74
V:2 midi program 1 46 bass middle = d transpose -24
Q:3/8=100
N:last note undotted in MS
K:D Minor
[V:1]   A2c cAF F3 |B2d dBG G2c|fed cAF FAF|E2G GEC C2||
[V:2]   f3  f3  A3 |B3  B3  c3 |F3  f3  f3 |c3  c3  c2||
%
[V:1] B|AFD D2D D2B|AcA D2F GCB|AFD D2D DEF|E2G GEC C3|]
[V:2] z|d3  d3  d3 |f3  f3  c3 |d3  d3  d3 |c3  c3  c3|]
W:Transcription (c) Jack Campin 2009, no mirroring or republication without permission

